svgs/light/square-check.svg

<svg xmlns="http://www.w3.org/2000/svg" viewBox="0 0 448 512"><!--! Font Awesome Pro 6.4.2 by @fontawesome - https://fontawesome.com License - https://fontawesome.com/license (Commercial License) Copyright 2023 Fonticons, Inc. --><path d="M64 64C46.3 64 32 78.3 32 96V416c0 17.7 14.3 32 32 32H384c17.7 0 32-14.3 32-32V96c0-17.7-14.3-32-32-32H64zM0 96C0 60.7 28.7 32 64 32H384c35.3 0 64 28.7 64 64V416c0 35.3-28.7 64-64 64H64c-35.3 0-64-28.7-64-64V96zM331.3 203.3l-128 128c-6.2 6.2-16.4 6.2-22.6 0l-64-64c-6.2-6.2-6.2-16.4 0-22.6s16.4-6.2 22.6 0L192 297.4 308.7 180.7c6.2-6.2 16.4-6.2 22.6 0s6.2 16.4 0 22.6z"/></svg>

<svg xmlns="http://www.w3.org/2000/svg" viewBox="0 0 448 512"><!--! Font Awesome Pro 6.1.1 by @fontawesome - https://fontawesome.com License - https://fontawesome.com/license (Commercial License) Copyright 2022 Fonticons, Inc. --><path d="M203.3 331.3C197.1 337.6 186.9 337.6 180.7 331.3L116.7 267.3C110.4 261.1 110.4 250.9 116.7 244.7C122.9 238.4 133.1 238.4 139.3 244.7L192 297.4L308.7 180.7C314.9 174.4 325.1 174.4 331.3 180.7C337.6 186.9 337.6 197.1 331.3 203.3L203.3 331.3zM0 96C0 60.65 28.65 32 64 32H384C419.3 32 448 60.65 448 96V416C448 451.3 419.3 480 384 480H64C28.65 480 0 451.3 0 416V96zM32 96V416C32 433.7 46.33 448 64 448H384C401.7 448 416 433.7 416 416V96C416 78.33 401.7 64 384 64H64C46.33 64 32 78.33 32 96z"/></svg>
